!!!SOCIAL_FUNCTION:	songs of the grass dance
!!!PDT:	1918

Specific Region: Dakotas, Minnesota, Montana, Nebraska
!!!REG: Dakotas and Montana
!!!LING_GROUP: Siouan
!!!LANG: Tone
!!!OTL@ENG: Song of the Grass Dance (e)
!!!ONM: No. 200
**kern
*Imale
*clefF4
*k[b-e-a-]
*M2/4
*>[A,A]
*>norep[A]
*>A
=1!|:
*MM66
8c
8c
8c
16.c
32c
=2
8e-
8e-
8c
16.c
32c
=3
8c
8c
8c
16.c
32c
=4
8c
8c
8G
8G
=5
8E-
16F
16F
8F
8F
=6
8F
8F
8E-
8E-
=7||
*M3/4
2.E-
=8
8E-
8E-
8C
8C
8E-
8E-
=9||
*M2/4
8.C
16C
8C
8C
=10
2C
=11
2C
==:|!
*-
!!!CNT: Native American -- Sioux
!!!MRD: 1911/07//-1914///
!!!OCL: Frances Densmore
!!!YOR1: Teton Sioux Music, Bulletin 61,
!!!YOR2: Bureau of American Ethnology, Smithsonian Institution
!!!PPR: Government Printing Office
!!!PPP: Washington, D.C.
!!!PDT: 1918///
!!!ENC: Craig Stuart Sapp
!!!END: 2002/03/25/
!!!EEV: 2002/03/31/
!!!AGN: Dance Song/Song of the Grass Dance
!!!MPN@@SIO: Waha'chungka-nong'pa
!!!MPN@ENG: Two Shields
!!!TXO: Teton Sioux
!!!MLC: Standing Rock Reservation, South Dakota, United States of America
!!!ARL: 45.9/-100.7#
!!!catalog: Catalogue No. 526
!!!PPG: 477
!!!EFL: 205/245
!!!VTS: 1269008378
